X: 10983
Q: "Not too fast--with feeling."
M: 6/8
L: 1/8
K: C
(c/d/) |\
e>fe d<ge | c>Bc (d<B) c/A/ |\
e>fe d<ge | c>Bc d<B c/A/ |\
e |\
ecd e<ag | ec>d ecd |\
dBc dge | d<B {B}A/>G/ G2G |\
ced e<cd | ege f<de |\
f>ga g<ec | dAB c2 |]


